X: 41281
T: Tullamore Harbour, The
R: jig
M: 6/8
K: Gmajor
|:[Dd]|G2 B dB[Gg]|gaf gdB|[G2g2] d edB|edB AFD|
G2 B dBg|gaf g2 A|DFA dcA|GAF G2:|
|:D|GBd g2 g|dgb gdB|ecA BAG|FAF D2 D|
GB/c/d g3|d2 b gdB|DFA dcA|GAF G2:|

